icons/desktop/15/pin-mask-15.svg

<svg width="15" height="15" viewBox="0 0 15 15" fill="none" xmlns="http://www.w3.org/2000/svg">
<g clip-path="url(#clip0_265_3387)">
<path d="M6.82638 0.00199997C6.40938 0.00199997 6.00838 0.13 5.66838 0.371C4.64838 1.099 3.68437 1.915 2.79937 2.799C1.91337 3.684 1.09637 4.649 0.371375 5.668C0.0613748 6.103 -0.0606252 6.633 0.0283748 7.16C0.117375 7.687 0.406375 8.147 0.841375 8.457C1.17937 8.699 1.58037 8.827 1.99937 8.827C2.39337 8.827 2.77337 8.711 3.09437 8.501L3.71438 9.121L3.89537 11.185C4.01837 12.593 5.21537 13.696 6.62037 13.696C7.15837 13.696 7.66937 13.527 8.09737 13.207C8.49637 12.908 8.91838 12.567 9.35738 12.186L11.5854 14.414C11.9634 14.792 12.4654 15 12.9994 15C13.5334 15 14.0354 14.792 14.4134 14.414C15.1934 13.634 15.1934 12.365 14.4134 11.586L12.1884 9.36C12.4994 9.001 12.8384 8.588 13.1854 8.126C13.7454 7.38 13.8434 6.407 13.4484 5.522C13.0384 4.604 12.1714 3.979 11.1864 3.893L9.12237 3.712L8.50237 3.092C8.65137 2.864 8.75238 2.606 8.79838 2.33C8.88638 1.802 8.76437 1.272 8.45337 0.837C8.07937 0.313 7.47037 0 6.82437 0L6.82638 0.00199997Z" fill="white"/>
<path d="M13.5313 12.472L10.4643 9.405L10.5043 9.366C11.0463 8.787 11.6103 8.148 12.1873 7.379C12.8183 6.538 12.1813 5.238 11.0793 5.141L8.56226 4.92L6.69626 3.054C6.88626 2.908 7.06926 2.752 7.26326 2.613C7.60026 2.372 7.67926 1.904 7.43826 1.567C7.19826 1.231 6.72926 1.152 6.39226 1.392C5.42926 2.079 4.51826 2.851 3.68326 3.685C2.84626 4.521 2.07526 5.433 1.39026 6.395C1.15026 6.732 1.22926 7.201 1.56726 7.441C1.69926 7.535 1.85026 7.58 2.00126 7.58C2.23526 7.58 2.46726 7.471 2.61326 7.265C2.75226 7.07 2.90926 6.886 3.05526 6.695L4.92226 8.562L5.14326 11.079C5.23926 12.169 6.51826 12.832 7.35126 12.209C8.00126 11.723 8.68126 11.14 9.36526 10.501L9.40326 10.463L12.4723 13.533C12.6183 13.679 12.8103 13.753 13.0023 13.753C13.1943 13.753 13.3863 13.68 13.5323 13.533C13.8253 13.24 13.8243 12.765 13.5313 12.472Z" fill="black"/>
</g>
<defs>
<clipPath id="clip0_265_3387">
<rect width="15" height="15" fill="white"/>
</clipPath>
</defs>
</svg>

<!-- This Source Code Form is subject to the terms of the Mozilla Public
   - License, v. 2.0. If a copy of the MPL was not distributed with this
   - file, You can obtain one at http://mozilla.org/MPL/2.0/. -->
<svg xmlns="http://www.w3.org/2000/svg" width="15" height="15" fill="context-fill" fill-opacity="context-fill-opacity" viewBox="0 0 15 15">
    <path d="M6.826.002c-.417 0-.818.128-1.158.369A23 23 0 0 0 2.8 2.799 22.5 22.5 0 0 0 .371 5.668c-.31.435-.432.965-.343 1.492.09.527.378.987.813 1.297a2 2 0 0 0 2.253.044l.62.62.181 2.064c.123 1.408 1.32 2.511 2.725 2.511.538 0 1.05-.169 1.477-.489q.6-.449 1.26-1.021l2.228 2.228c.378.378.88.586 1.414.586s1.036-.208 1.414-.586c.78-.78.78-2.049 0-2.828L12.188 9.36c.311-.359.65-.772.997-1.234.56-.746.658-1.719.263-2.604a2.75 2.75 0 0 0-2.262-1.629l-2.064-.181-.62-.62c.15-.228.25-.486.296-.762A2 2 0 0 0 8.453.837 2 2 0 0 0 6.824 0z" />
    <path d="m13.531 12.472-3.067-3.067.04-.039a24 24 0 0 0 1.683-1.987c.631-.841-.006-2.141-1.108-2.238L8.562 4.92 6.696 3.054c.19-.146.373-.302.567-.441a.75.75 0 1 0-.87-1.221A21.3 21.3 0 0 0 1.39 6.395a.75.75 0 0 0 1.222.87c.14-.195.296-.379.442-.57l1.867 1.867.221 2.517c.096 1.09 1.375 1.753 2.208 1.13.65-.486 1.33-1.069 2.014-1.708l.038-.038 3.07 3.07a.75.75 0 0 0 1.06 0 .75.75 0 0 0-.002-1.061" />
</svg>
